static/img/kroki/97f53f266f29a50202e3f66e519978a4.svg

<?xml version="1.0" encoding="us-ascii" standalone="no"?><svg xmlns="http://www.w3.org/2000/svg" xmlns:xlink="http://www.w3.org/1999/xlink" contentStyleType="text/css" height="374px" preserveAspectRatio="none" style="width:385px;height:374px;" version="1.1" viewBox="0 0 385 374" width="385px" zoomAndPan="magnify"><defs/><g><!--class azure_cosmos_db_notebook_workspace--><g id="elem_azure_cosmos_db_notebook_workspace"><rect codeLine="23" fill="#3D176E" height="39.7891" id="azure_cosmos_db_notebook_workspace" rx="2.5" ry="2.5" style="stroke:#000D19;stroke-width:0.5;" width="371" x="7" y="328.58"/><ellipse cx="22" cy="348.4745" fill="#ADD1B2" rx="11" ry="11" style="stroke:#181818;stroke-width:1.0;"/><path d="M24.9688,354.1152 Q24.3906,354.412 23.75,354.5527 Q23.1094,354.7089 22.4063,354.7089 Q19.9063,354.7089 18.5781,353.0683 Q17.2656,351.412 17.2656,348.287 Q17.2656,345.162 18.5781,343.5058 Q19.9063,341.8495 22.4063,341.8495 Q23.1094,341.8495 23.75,342.0058 Q24.4063,342.162 24.9688,342.4589 L24.9688,345.1777 Q24.3438,344.5995 23.75,344.3339 Q23.1563,344.0527 22.5313,344.0527 Q21.1875,344.0527 20.5,345.1308 Q19.8125,346.1933 19.8125,348.287 Q19.8125,350.3808 20.5,351.4589 Q21.1875,352.5214 22.5313,352.5214 Q23.1563,352.5214 23.75,352.2558 Q24.3438,351.9745 24.9688,351.3964 L24.9688,354.1152 Z " fill="#000000"/><text fill="#D9B8FF" font-family="Helvetica" font-size="17" lengthAdjust="spacing" textLength="329" x="41" y="354.3598">azure_cosmos_db_notebook_workspace</text></g><!--class microsoft_resource--><g id="elem_microsoft_resource"><rect codeLine="26" fill="#3D176E" height="39.7891" id="microsoft_resource" rx="2.5" ry="2.5" style="stroke:#000D19;stroke-width:0.5;" width="200" x="92.5" y="167.79"/><ellipse cx="107.5" cy="187.6845" fill="#ADD1B2" rx="11" ry="11" style="stroke:#181818;stroke-width:1.0;"/><path d="M110.4688,193.3252 Q109.8906,193.622 109.25,193.7627 Q108.6094,193.9189 107.9063,193.9189 Q105.4063,193.9189 104.0781,192.2783 Q102.7656,190.622 102.7656,187.497 Q102.7656,184.372 104.0781,182.7158 Q105.4063,181.0595 107.9063,181.0595 Q108.6094,181.0595 109.25,181.2158 Q109.9063,181.372 110.4688,181.6689 L110.4688,184.3877 Q109.8438,183.8095 109.25,183.5439 Q108.6563,183.2627 108.0313,183.2627 Q106.6875,183.2627 106,184.3408 Q105.3125,185.4033 105.3125,187.497 Q105.3125,189.5908 106,190.6689 Q106.6875,191.7314 108.0313,191.7314 Q108.6563,191.7314 109.25,191.4658 Q109.8438,191.1845 110.4688,190.6064 L110.4688,193.3252 Z " fill="#000000"/><text fill="#D9B8FF" font-family="Helvetica" font-size="17" lengthAdjust="spacing" textLength="158" x="126.5" y="193.5698">microsoft_resource</text></g><!--class resource--><g id="elem_resource"><rect codeLine="29" fill="#3D176E" height="39.7891" id="resource" rx="2.5" ry="2.5" style="stroke:#000D19;stroke-width:0.5;" width="113" x="136" y="7"/><ellipse cx="151" cy="26.8945" fill="#ADD1B2" rx="11" ry="11" style="stroke:#181818;stroke-width:1.0;"/><path d="M153.9688,32.5352 Q153.3906,32.832 152.75,32.9727 Q152.1094,33.1289 151.4063,33.1289 Q148.9063,33.1289 147.5781,31.4883 Q146.2656,29.832 146.2656,26.707 Q146.2656,23.582 147.5781,21.9258 Q148.9063,20.2695 151.4063,20.2695 Q152.1094,20.2695 152.75,20.4258 Q153.4063,20.582 153.9688,20.8789 L153.9688,23.5977 Q153.3438,23.0195 152.75,22.7539 Q152.1563,22.4727 151.5313,22.4727 Q150.1875,22.4727 149.5,23.5508 Q148.8125,24.6133 148.8125,26.707 Q148.8125,28.8008 149.5,29.8789 Q150.1875,30.9414 151.5313,30.9414 Q152.1563,30.9414 152.75,30.6758 Q153.3438,30.3945 153.9688,29.8164 L153.9688,32.5352 Z " fill="#000000"/><text fill="#D9B8FF" font-family="Helvetica" font-size="17" lengthAdjust="spacing" textLength="71" x="170" y="32.7798">resource</text></g><!--reverse link microsoft_resource to azure_cosmos_db_notebook_workspace--><g id="link_microsoft_resource_azure_cosmos_db_notebook_workspace"><path codeLine="32" d="M192.5,225.84 C192.5,256.36 192.5,297.69 192.5,328.25 " fill="none" id="microsoft_resource-backto-azure_cosmos_db_notebook_workspace" style="stroke:#FFAF37;stroke-width:2.0;"/><polygon fill="none" points="192.5,207.84,186.5,225.84,198.5,225.84,192.5,207.84" style="stroke:#FFAF37;stroke-width:2.0;"/></g><!--reverse link resource to microsoft_resource--><g id="link_resource_microsoft_resource"><path codeLine="33" d="M192.5,65.05 C192.5,95.57 192.5,136.9 192.5,167.46 " fill="none" id="resource-backto-microsoft_resource" style="stroke:#FFAF37;stroke-width:2.0;"/><polygon fill="none" points="192.5,47.05,186.5,65.05,198.5,65.05,192.5,47.05" style="stroke:#FFAF37;stroke-width:2.0;"/></g><!--SRC=[ZP9FJm8n4CNl-ocQSDu49BgGU44IenTYnFkcsqwXsMrdCzELWFhT1K5JTldZTTwlyzwRT6ar271rM0i7hW3YX4lhQqdIYGaHhgPO8OcUCT8CixRuY3vS1MRIWNY2wXs2LR9Dl2sjAZqmYvj8Uf2gN10sNk_N1vAUjnBu457JIZ9FGY1RD06YC7fSZ8nfa-sblQ4UP7VGmP0qq07fz_jwC6uZLwqkzluZvdO3OX0VROO1EZ4x5Z_KnPGx8WhPAVghdytu8hMsVY5kezdhFXDveAFvV2arhdQqaHN7DXo00CEwXccd5On7scGduUTpSA9sfnDoqn3a2jaXvxh8_RPDWLZcAwHo-qqKY8ya-JhGpYf2HXDo0iQ6ZjNZsGds_ZDDqtzO9gqNtLN9Dm00]--></g></svg>

<svg xmlns="http://www.w3.org/2000/svg" width="385" height="374" viewBox="0 0 385 374"><rect width="371" height="39.789" x="7" y="328.58" fill="#3D176E" rx="2.5" ry="2.5" style="stroke:#000d19;stroke-width:.5"/><circle cx="22" cy="348.474" r="11" fill="#ADD1B2" style="stroke:#181818;stroke-width:1"/><path d="M24.969 354.115q-.578.297-1.219.438-.64.156-1.344.156-2.5 0-3.828-1.64-1.312-1.657-1.312-4.782t1.312-4.781q1.328-1.656 3.828-1.656.703 0 1.344.156.656.156 1.219.453v2.719q-.625-.579-1.219-.844-.594-.281-1.219-.281-1.343 0-2.031 1.078-.687 1.062-.687 3.156t.687 3.172q.688 1.062 2.031 1.062.625 0 1.219-.265.594-.281 1.219-.86z"/><text x="41" y="354.36" fill="#D9B8FF" font-family="Helvetica" font-size="17" textLength="329">azure_cosmos_db_notebook_workspace</text><rect width="200" height="39.789" x="92.5" y="167.79" fill="#3D176E" rx="2.5" ry="2.5" style="stroke:#000d19;stroke-width:.5"/><circle cx="107.5" cy="187.685" r="11" fill="#ADD1B2" style="stroke:#181818;stroke-width:1"/><path d="M110.469 193.325q-.578.297-1.219.438-.64.156-1.344.156-2.5 0-3.828-1.64-1.312-1.657-1.312-4.782t1.312-4.781q1.328-1.656 3.828-1.656.703 0 1.344.156.656.156 1.219.453v2.719q-.625-.578-1.219-.844-.594-.281-1.219-.281-1.344 0-2.031 1.078-.687 1.062-.687 3.156t.687 3.172q.688 1.062 2.031 1.062.625 0 1.219-.265.594-.281 1.219-.86z"/><text x="126.5" y="193.57" fill="#D9B8FF" font-family="Helvetica" font-size="17" textLength="158">microsoft_resource</text><rect width="113" height="39.789" x="136" y="7" fill="#3D176E" rx="2.5" ry="2.5" style="stroke:#000d19;stroke-width:.5"/><circle cx="151" cy="26.895" r="11" fill="#ADD1B2" style="stroke:#181818;stroke-width:1"/><path d="M153.969 32.535q-.578.297-1.219.438-.64.156-1.344.156-2.5 0-3.828-1.64-1.312-1.657-1.312-4.782t1.312-4.781q1.328-1.656 3.828-1.656.703 0 1.344.156.656.156 1.219.453v2.719q-.625-.578-1.219-.844-.594-.281-1.219-.281-1.344 0-2.031 1.078-.687 1.062-.687 3.156t.687 3.172q.688 1.062 2.031 1.062.625 0 1.219-.265.594-.281 1.219-.86z"/><text x="170" y="32.78" fill="#D9B8FF" font-family="Helvetica" font-size="17" textLength="71">resource</text><path fill="none" d="M192.5 225.84v102.41m0-120.41-6 18h12zm0-142.79v102.41m0-120.41-6 18h12z" style="stroke:#ffaf37;stroke-width:2"/></svg>
